Obsidian/actions/16s/twitter-profile.svg

<svg height="16" viewBox="0 0 16 16" width="16" xmlns="http://www.w3.org/2000/svg"><path d="m8.0097656 1.6894531c-1.832 0-3.3248062 1.5522344-3.3789062 3.4902344-.045.0116-.0885194.0315875-.1308594.0546875-.4213.22956-.5304475.9444919-.2421875 1.6074219.2319.5333.6437781.8637356 1.0175781.8535156.28138 1.7723 1.401475 3.0937495 2.734375 3.0937495.004 0 .0077188.000021.0117188 0 1.3329 0 2.4530746-1.3214495 2.7343746-3.0937495.37378.0102.785649-.3202056 1.017579-.8535156.288259-.66292.179102-1.3778219-.242188-1.6074219-.0424-.0231-.085809-.0430875-.130859-.0546875-.0542-1.938-1.5469066-3.4902344-3.3789066-3.4902344-.004-.00002-.0077188 0-.0117188 0zm2.3847654 9.3847659c-.28889.68765-1.2740185 1.203125-2.4492185 1.203125-1.1698 0-2.1456531-.508456-2.4394531-1.191406-2.4691.25341-4.268175.873941-4.484375 1.607421-.003.007.002.014485 0 .021485-.007.0264-.0087188.049372-.0117188.076172-.001.0121-.0097656.020803-.0097656.033203-.00009.004 0 .007819 0 .011719v1.814453c0 .19391.1557094.349609.3496094.349609h13.2988286c.193899 0 .351562-.155709.351562-.349609v-1.814453c0-.008001.00035-.015438 0-.023438-.002-.0425-.020803-.077331-.033203-.119141-.22075-.74233-2.058466-1.37184-4.572266-1.61914z" fill="#bebebe"/></svg>

<svg xmlns="http://www.w3.org/2000/svg" width="16" height="16" viewBox="0 0 16 16">
 <defs>
  <style id="current-color-scheme" type="text/css">
   .ColorScheme-Text { color:#bebebe; } .ColorScheme-Highlight { color:#4285f4; }
  </style>
 </defs>
 <path style="fill:currentColor" class="ColorScheme-Text" d="M 8.0097656 1.6894531 C 6.1777656 1.6894531 4.6849594 3.2416875 4.6308594 5.1796875 C 4.5858594 5.1912875 4.54234 5.211275 4.5 5.234375 C 4.0787 5.463935 3.9695525 6.1788669 4.2578125 6.8417969 C 4.4897125 7.3750969 4.9015906 7.7055325 5.2753906 7.6953125 C 5.5567706 9.4676125 6.6768656 10.789062 8.0097656 10.789062 C 8.0137656 10.789062 8.0174844 10.789083 8.0214844 10.789062 C 9.3543844 10.789062 10.474559 9.4676125 10.755859 7.6953125 C 11.129639 7.7055125 11.541508 7.3751069 11.773438 6.8417969 C 12.061697 6.1788769 11.95254 5.463975 11.53125 5.234375 C 11.48885 5.211275 11.445441 5.1912875 11.400391 5.1796875 C 11.346191 3.2416875 9.8534844 1.6894531 8.0214844 1.6894531 C 8.0174844 1.6894331 8.0137656 1.6894531 8.0097656 1.6894531 z M 10.394531 11.074219 C 10.105641 11.761869 9.1205125 12.277344 7.9453125 12.277344 C 6.7755125 12.277344 5.7996594 11.768888 5.5058594 11.085938 C 3.0367594 11.339348 1.2376844 11.959879 1.0214844 12.693359 C 1.0184844 12.700359 1.0234844 12.707844 1.0214844 12.714844 C 1.0144844 12.741244 1.0127656 12.764216 1.0097656 12.791016 C 1.0087656 12.803116 1 12.811819 1 12.824219 C 0.99991 12.828219 1 12.832038 1 12.835938 L 1 14.650391 C 1 14.844301 1.1557094 15 1.3496094 15 L 14.648438 15 C 14.842337 15 15 14.844291 15 14.650391 L 15 12.835938 C 15 12.827937 15.00035 12.8205 15 12.8125 C 14.998 12.77 14.979197 12.735169 14.966797 12.693359 C 14.746047 11.951029 12.908331 11.321519 10.394531 11.074219 z"/>
</svg>
